X:1
T:Delia, or the Amorous Goddess
T:Delia, or the Amorous Goddess
T:Samuel Howard
C:Samuel Howard
L:1/8
M:4/4
K:D
V:1 treble 
V:1
 A2 | d2 d/e/f e2 ac | d2 g<e d2 c2 | dA B=c B^c d2 | e/f/g f2 e4 | d2 d/e/f e2 ac | d2 g<e d2 c2 | %7
 dA B=c B2 ge | d2 c2 d4 || c2 d/e/f e2 dc | d2 cB c4 | ec BA F^G A2 | d2 c2 B4 | e2 df e2 dc | %14
 d2 bd c4 | ec BA F2 dB | A2 ^G2 A4 || d2 d/e/f e2 ac | d2 g<e e2 c2 | dA B=c B^c d2 | %20
 e/f/g f2 e4 | d2 d/e/f e2 ac | d2 g<e d2 c2 | dA B=c B2 ge | d2 c3/2B/4c/4 d4 || %25

